X:8205
T:Johnny Mickey's
S:unknown. photocopy probably from John Wilson (it is a polka after all)
M:2/4l
I:speed 300
K:G
|:BA | G2B2 D2E2 | G4 G2e2 | d2B2 A2G2 | dedB A2BA |
G2B2 D2E2 | G4 g3e | d2B2 A2GA | B2G2 G2:|
|:A2 | B2d2 B2d2 | g4 g3e | d2B2 A2G2 | dedB A2GA |
B2d2 B2d2 | g4 g3e | d2B2 A2GA | B2G2 G2:|
